Production/EA4S_WordDrawings/SVG/singles_SVG/nail.svg

<?xml version="1.0" encoding="UTF-8" standalone="no"?><!DOCTYPE svg PUBLIC "-//W3C//DTD SVG 1.1//EN" "http://www.w3.org/Graphics/SVG/1.1/DTD/svg11.dtd"><svg width="100%" height="100%" viewBox="0 0 287 527" version="1.1" xmlns="http://www.w3.org/2000/svg" xmlns:xlink="http://www.w3.org/1999/xlink" xml:space="preserve" style="fill-rule:evenodd;clip-rule:evenodd;stroke-linejoin:round;stroke-miterlimit:1.41421;"><g id="nail"><path d="M157.213,2.409c-9.406,-2.67 -19.129,-2.424 -28.822,-2.079c-10.742,0.381 -21.434,3.032 -30.967,8.004c-19.539,10.19 -26.953,33.168 -30.656,53.416c-8.182,44.739 -0.58,90.289 -0.518,135.297c0.043,30.373 -3.299,72.698 29.98,87.434c14.127,6.255 30.34,6.246 45.471,5.279c14.033,-0.896 27.801,-3.14 41.516,-6.128c3.857,-0.841 7.303,-8 1.984,-9.261c-7.834,-1.857 -16.279,-1.296 -24.232,-0.515c-9.736,0.957 -19.473,1.928 -29.268,1.912c-17.943,-0.028 -37.045,-4.966 -45.24,-22.531c-4.387,-9.397 -5.037,-20.419 -5.646,-30.605c-0.707,-11.781 -0.555,-23.599 -0.627,-35.395c-0.133,-21.401 -2.285,-42.754 -2.996,-64.141c-0.963,-28.874 -1.287,-60.184 10.025,-87.31c2.273,-5.453 5.086,-10.458 9.561,-14.386c5.092,-4.467 11.682,-6.766 18.074,-8.62c13.295,-3.858 26.975,-3.242 40.549,-5.071c2.318,-0.313 5.215,-4.334 1.812,-5.3Z" style="fill-rule:nonzero;"/><path d="M160.542,8.218c7.82,4.418 16.352,7.327 24.24,11.631c9.635,5.256 16.529,13.574 20.951,23.525c9.307,20.944 11.58,44.337 12.609,66.978c1.131,24.828 0.18,49.746 -1.021,74.553c-0.57,11.791 -1.227,23.573 -1.93,35.356c-0.768,12.901 -1.506,27.057 -9.061,38.053c-3.838,5.584 -9.371,8.579 -15.74,10.428c-7.967,2.313 -16.004,4.241 -23.799,7.046c-3.141,1.13 -5.398,6.697 -0.57,6.813c9.467,0.229 18.961,0.44 28.113,-2.475c9.916,-3.157 18.234,-9.582 23.814,-18.353c7.514,-11.811 9.383,-25.184 10.408,-38.878c0.92,-12.267 1.324,-24.586 1.846,-36.875c1.043,-24.534 1.826,-49.092 0.73,-73.639c-1.008,-22.59 -3.236,-46.112 -11.396,-67.385c-4.838,-12.605 -11.801,-23.803 -23.5,-30.979c-10.021,-6.147 -21.875,-8.058 -33.299,-9.739c-1.786,-0.26 -4.606,2.691 -2.395,3.94Z" style="fill-rule:nonzero;"/><path d="M66.792,104.22c-21.332,0.164 -35.354,20.12 -43.502,37.552c-10.912,23.349 -15.088,49.159 -16.125,74.72c-1.242,30.536 1.678,61.152 2.617,91.663c0.971,31.486 1.035,63.047 -1.088,94.49c-1.242,18.393 -1.283,36.566 -0.803,54.994c0.232,8.919 0.402,17.838 0.273,26.76c-0.141,9.858 -1.377,19.18 -2.881,28.887c3.652,-2.121 7.303,-4.243 10.953,-6.364c-2.371,-1.729 -4.592,-2.313 -7.322,-3.268c-3.49,-1.221 -10.336,2.642 -8.018,7.036c1.471,2.789 3.086,4.783 5.33,6.972c4.031,3.934 11.416,-0.489 12.121,-5.435c4.447,-31.232 0.383,-63.249 1.145,-94.636c0.379,-15.626 2.027,-31.211 2.494,-46.849c0.475,-15.858 0.445,-31.73 0.176,-47.594c-0.52,-30.746 -2.949,-61.43 -3.326,-92.173c-0.338,-27.6 2.789,-54.37 11.5,-80.618c5.695,-17.161 15.6,-36.41 35.117,-39.891c3.169,-0.565 6.092,-6.283 1.339,-6.246Z" style="fill-rule:nonzero;"/><path d="M55.614,184.781c-1.961,27.325 -2.061,57.624 10.096,82.863c12.668,26.299 42.545,39.585 71.006,36.214c0.992,-0.117 2.377,-2.106 0.811,-2.369c-15.057,-2.524 -29.926,-3.764 -43.545,-11.346c-10.91,-6.073 -19.104,-15.813 -24.5,-26.954c-11.67,-24.095 -11.162,-52.539 -13.152,-78.637c-0.038,-0.484 -0.691,-0.11 -0.716,0.229Z" style="fill-rule:nonzero;"/><path d="M165.778,304.076c11.486,1.532 21.947,0.673 32.609,-4.258c11.096,-5.129 20.348,-13.262 27.92,-22.772c7.508,-9.432 12.902,-20.401 16.521,-31.86c3.262,-10.33 6.465,-24.809 2.646,-35.375c-0.557,-1.541 -2.918,-0.191 -3.047,0.982c-0.525,4.712 -0.291,9.481 -0.584,14.215c-0.352,5.694 -1.457,11.367 -2.883,16.881c-2.887,11.171 -8.088,21.777 -14.82,31.12c-13.107,18.19 -34.979,31.499 -57.977,30.25c-0.416,-0.024 -0.95,0.741 -0.385,0.817Z" style="fill-rule:nonzero;"/><path d="M127.379,16.801c-10.887,-3 -19.689,8.398 -23.26,17.061c-4.854,11.771 -4.779,25.713 -5.807,38.227c-2.639,32.083 -4.906,65.786 2.424,97.422c0.262,1.135 1.588,1.399 2.537,1.416c7.363,0.127 20.99,3.143 23.717,-6.504c1.037,-3.666 -3.916,-2.753 -5.332,-1.005c-2.727,3.366 -13.164,1.027 -16.988,0.99c0.846,0.472 1.691,0.944 2.537,1.416c-6.621,-27.524 -5.248,-56.924 -3.494,-84.946c0.779,-12.456 1.139,-25.278 3.166,-37.603c0.92,-5.592 2.459,-11.304 5.52,-16.126c3.516,-5.538 8.711,-6.952 14.617,-8.653c0.692,-0.201 1.344,-1.424 0.363,-1.695Z" style="fill-rule:nonzero;"/><path d="M136.52,28.422c-6.93,8.023 -10.1,19.095 -12.328,29.249c-2.582,11.761 -3.041,24.132 -3.025,36.133c0.016,12.13 0.729,24.251 1.271,36.365c0.273,6.103 0.482,12.208 0.549,18.317c0.031,2.935 -0.004,5.869 -0.072,8.803c-0.033,1.43 -0.096,2.859 -0.16,4.289c-0.035,0.75 -1.004,4.051 0.447,1.977c1.363,-0.619 2.727,-1.238 4.09,-1.857c-0.402,-0.286 -0.77,-0.611 -1.1,-0.978c-1.805,-2.131 -4.748,0.889 -4.867,2.796c-0.121,1.907 0.66,3.307 2.176,4.41c1.561,1.135 3.861,-0.446 4.824,-1.603c2.395,-2.876 1.445,-9.177 1.498,-12.685c0.092,-5.967 -0.104,-11.937 -0.35,-17.897c-0.518,-12.55 -1.451,-25.079 -1.861,-37.635c-0.396,-12.153 -0.332,-24.355 1.252,-36.428c1.523,-11.617 5.287,-21.953 8.697,-33.06c0.225,-0.725 -0.768,-0.513 -1.041,-0.196Z" style="fill-rule:nonzero;"/><path d="M222.424,105.826c40.709,29.095 45.693,83.133 49.424,129.064c2.543,31.309 3.467,62.766 2.5,94.165c-0.98,31.853 -4.881,63.539 -6.74,95.348c-1.127,19.287 -0.955,38.604 -1.939,57.892c-0.396,7.797 -0.91,15.573 -1.809,23.331c-0.346,2.978 -0.754,5.95 -1.307,8.897c-0.209,1.121 -0.453,2.235 -0.676,3.354c-0.115,0.584 -0.641,2.002 0.213,-0.363c0.863,-2.396 5.564,-5.162 9.031,-4.869c-4.184,-0.353 -8.143,1.957 -9.949,5.799c-1.396,2.97 -0.813,7.925 3.316,8.273c8.266,0.697 12.154,-7.084 13.023,-14.072c0.992,-7.98 1.074,-16.068 1.328,-24.096c0.596,-18.799 0.205,-37.602 0.631,-56.4c0.725,-32.018 4.836,-63.761 6.344,-95.723c1.477,-31.345 0.709,-62.791 -1.477,-94.083c-1.982,-28.396 -4.438,-57.189 -13.621,-84.307c-7.582,-22.388 -21.26,-47.834 -43.529,-58.5c-3.394,-1.625 -8.304,3.76 -4.763,6.29Z" style="fill-rule:nonzero;"/></g></svg>

<?xml version="1.0" encoding="UTF-8"?>
<svg width="287px" height="527px" viewBox="0 0 287 527" version="1.1" xmlns="http://www.w3.org/2000/svg" xmlns:xlink="http://www.w3.org/1999/xlink">
    <!-- Generator: Sketch 41 (35326) - http://www.bohemiancoding.com/sketch -->
    <title>nail</title>
    <desc>Created with Sketch.</desc>
    <defs></defs>
    <g id="Page-1" stroke="none" stroke-width="1" fill="none" fill-rule="evenodd">
        <g id="Layer_1" transform="translate(-3773.000000, -804.000000)" fill="#000000">
            <g id="Layer_1_3_">
                <g id="nail" transform="translate(3773.000000, 804.000000)">
                    <path d="M157.213,2.409 C147.807,-0.261 138.084,-0.015 128.391,0.33 C117.649,0.711 106.957,3.362 97.424,8.334 C77.885,18.524 70.471,41.502 66.768,61.75 C58.586,106.489 66.188,152.039 66.25,197.047 C66.293,227.42 62.951,269.745 96.23,284.481 C110.357,290.736 126.57,290.727 141.701,289.76 C155.734,288.864 169.502,286.62 183.217,283.632 C187.074,282.791 190.52,275.632 185.201,274.371 C177.367,272.514 168.922,273.075 160.969,273.856 C151.233,274.813 141.496,275.784 131.701,275.768 C113.758,275.74 94.656,270.802 86.461,253.237 C82.074,243.84 81.424,232.818 80.815,222.632 C80.108,210.851 80.26,199.033 80.188,187.237 C80.055,165.836 77.903,144.483 77.192,123.096 C76.229,94.222 75.905,62.912 87.217,35.786 C89.49,30.333 92.303,25.328 96.778,21.4 C101.87,16.933 108.46,14.634 114.852,12.78 C128.147,8.922 141.827,9.538 155.401,7.709 C157.719,7.396 160.616,3.375 157.213,2.409 L157.213,2.409 Z" id="Shape"></path>
                    <path d="M160.542,8.218 C168.362,12.636 176.894,15.545 184.782,19.849 C194.417,25.105 201.311,33.423 205.733,43.374 C215.04,64.318 217.313,87.711 218.342,110.352 C219.473,135.18 218.522,160.098 217.321,184.905 C216.751,196.696 216.094,208.478 215.391,220.261 C214.623,233.162 213.885,247.318 206.33,258.314 C202.492,263.898 196.959,266.893 190.59,268.742 C182.623,271.055 174.586,272.983 166.791,275.788 C163.65,276.918 161.393,282.485 166.221,282.601 C175.688,282.83 185.182,283.041 194.334,280.126 C204.25,276.969 212.568,270.544 218.148,261.773 C225.662,249.962 227.531,236.589 228.556,222.895 C229.476,210.628 229.88,198.309 230.402,186.02 C231.445,161.486 232.228,136.928 231.132,112.381 C230.124,89.791 227.896,66.269 219.736,44.996 C214.898,32.391 207.935,21.193 196.236,14.017 C186.215,7.87 174.361,5.959 162.937,4.278 C161.151,4.018 158.331,6.969 160.542,8.218 L160.542,8.218 Z" id="Shape"></path>
                    <path d="M66.792,104.22 C45.46,104.384 31.438,124.34 23.29,141.772 C12.378,165.121 8.202,190.931 7.165,216.492 C5.923,247.028 8.843,277.644 9.782,308.155 C10.753,339.641 10.817,371.202 8.694,402.645 C7.452,421.038 7.411,439.211 7.891,457.639 C8.123,466.558 8.293,475.477 8.164,484.399 C8.023,494.257 6.787,503.579 5.283,513.286 C8.935,511.165 12.586,509.043 16.236,506.922 C13.865,505.193 11.644,504.609 8.914,503.654 C5.424,502.433 -1.422,506.296 0.896,510.69 C2.367,513.479 3.982,515.473 6.226,517.662 C10.257,521.596 17.642,517.173 18.347,512.227 C22.794,480.995 18.73,448.978 19.492,417.591 C19.871,401.965 21.519,386.38 21.986,370.742 C22.461,354.884 22.431,339.012 22.162,323.148 C21.642,292.402 19.213,261.718 18.836,230.975 C18.498,203.375 21.625,176.605 30.336,150.357 C36.031,133.196 45.936,113.947 65.453,110.466 C68.622,109.901 71.545,104.183 66.792,104.22 L66.792,104.22 Z" id="Shape"></path>
                    <path d="M55.614,184.781 C53.653,212.106 53.553,242.405 65.71,267.644 C78.378,293.943 108.255,307.229 136.716,303.858 C137.708,303.741 139.093,301.752 137.527,301.489 C122.47,298.965 107.601,297.725 93.982,290.143 C83.072,284.07 74.878,274.33 69.482,263.189 C57.812,239.094 58.32,210.65 56.33,184.552 C56.292,184.068 55.639,184.442 55.614,184.781 L55.614,184.781 Z" id="Shape"></path>
                    <path d="M165.778,304.076 C177.264,305.608 187.725,304.749 198.387,299.818 C209.483,294.689 218.735,286.556 226.307,277.046 C233.815,267.614 239.209,256.645 242.828,245.186 C246.09,234.856 249.293,220.377 245.474,209.811 C244.917,208.27 242.556,209.62 242.427,210.793 C241.902,215.505 242.136,220.274 241.843,225.008 C241.491,230.702 240.386,236.375 238.96,241.889 C236.073,253.06 230.872,263.666 224.14,273.009 C211.033,291.199 189.161,304.508 166.163,303.259 C165.747,303.235 165.213,304 165.778,304.076 L165.778,304.076 Z" id="Shape"></path>
                    <path d="M127.379,16.801 C116.492,13.801 107.69,25.199 104.119,33.862 C99.265,45.633 99.34,59.575 98.312,72.089 C95.673,104.172 93.406,137.875 100.736,169.511 C100.998,170.646 102.324,170.91 103.273,170.927 C110.636,171.054 124.263,174.07 126.99,164.423 C128.027,160.757 123.074,161.67 121.658,163.418 C118.931,166.784 108.494,164.445 104.67,164.408 C105.516,164.88 106.361,165.352 107.207,165.824 C100.586,138.3 101.959,108.9 103.713,80.878 C104.492,68.422 104.852,55.6 106.879,43.275 C107.799,37.683 109.338,31.971 112.399,27.149 C115.915,21.611 121.11,20.197 127.016,18.496 C127.708,18.295 128.36,17.072 127.379,16.801 L127.379,16.801 Z" id="Shape"></path>
                    <path d="M136.52,28.422 C129.59,36.445 126.42,47.517 124.192,57.671 C121.61,69.432 121.151,81.803 121.167,93.804 C121.183,105.934 121.896,118.055 122.438,130.169 C122.711,136.272 122.92,142.377 122.987,148.486 C123.018,151.421 122.983,154.355 122.915,157.289 C122.882,158.719 122.819,160.148 122.755,161.578 C122.72,162.328 121.751,165.629 123.202,163.555 C124.565,162.936 125.929,162.317 127.292,161.698 C126.89,161.412 126.522,161.087 126.192,160.72 C124.387,158.589 121.444,161.609 121.325,163.516 C121.204,165.423 121.985,166.823 123.501,167.926 C125.062,169.061 127.362,167.48 128.325,166.323 C130.72,163.447 129.77,157.146 129.823,153.638 C129.915,147.671 129.719,141.701 129.473,135.741 C128.955,123.191 128.022,110.662 127.612,98.106 C127.216,85.953 127.28,73.751 128.864,61.678 C130.387,50.061 134.151,39.725 137.561,28.618 C137.786,27.893 136.793,28.105 136.52,28.422 L136.52,28.422 Z" id="Shape"></path>
                    <path d="M222.424,105.826 C263.133,134.921 268.117,188.959 271.848,234.89 C274.391,266.199 275.315,297.656 274.348,329.055 C273.368,360.908 269.467,392.594 267.608,424.403 C266.481,443.69 266.653,463.007 265.669,482.295 C265.273,490.092 264.759,497.868 263.86,505.626 C263.514,508.604 263.106,511.576 262.553,514.523 C262.344,515.644 262.1,516.758 261.877,517.877 C261.762,518.461 261.236,519.879 262.09,517.514 C262.953,515.118 267.654,512.352 271.121,512.645 C266.937,512.292 262.978,514.602 261.172,518.444 C259.776,521.414 260.359,526.369 264.488,526.717 C272.754,527.414 276.642,519.633 277.511,512.645 C278.503,504.665 278.585,496.577 278.839,488.549 C279.435,469.75 279.044,450.947 279.47,432.149 C280.195,400.131 284.306,368.388 285.814,336.426 C287.291,305.081 286.523,273.635 284.337,242.343 C282.355,213.947 279.899,185.154 270.716,158.036 C263.134,135.648 249.456,110.202 227.187,99.536 C223.793,97.911 218.883,103.296 222.424,105.826 L222.424,105.826 Z" id="Shape"></path>
                </g>
            </g>
        </g>
    </g>
</svg>
